X:1
T:Onward to Battle
T:Onward to Battle
T:Charles J. Espenshade
T:Hannah Thurston, 1915
T:Public Domain Courtesy of the Cyber Hymnal™
T:Public Domain Courtesy of the Cyber Hymnal™
C:Charles J. Espenshade
Z:Public Domain
Z:Courtesy of the Cyber Hymnal™
%%score ( 1 2 ) 3
L:1/8
Q:1/4=110
M:4/4
K:Eb
V:1 treble 
V:2 treble 
V:3 bass 
V:1
 e4 B3 G | c4 [GB]2 z [_EG] | [Ac]2 [GB]2 [FA]2 [B,D]2 | [B,E]2 [EG]2 ([EGB]2 (3Bcd) | e4 B3 G | %5
w: 1.~On- ward to|bat- tle, A|loy- al band of|sol- diers we; * * *|O’er wrong and|
w: 2.~Christ is our|cap- tain, A|lead- er strong and|true is He; * * *|He leads to|
w: 3.~Long tho’ the|con- flict, We|ne’er shall give the|bat- tle o’er; * * *|Till Christ in|
 d2 c2 [GB]2 [_Ec]2 | [Fd]2 [FB]2 [Ec]2 [Ec]2 | [DFB]6 z2 |:"^Refrain" [B,E]2 [B,E]2 [B,E]2 [DF]2 | %9
w: e- vil We’ll win|the vic- to- ry!|On-|ward, then, nor fal-|
w: tri- umph Tho’ fierce|the strife may be.|On-|ward, then, our cap-|
w: tri- umph Shall reign|from shore to shore.|||
 [EG]>^F [EG]>A [GB]2 [EG]2 | FB G4 [B,F]2 | EG C4 [B,D]2 | [B,E]2 [B,E]2 [B,E]2 [DF]2 |1 %13
w: ter in the con- flict, Haste|a- way, the call|o- bey; Tho’ e-|vil’s might- y host|
w: tain true is lead- ing, For-|ward go to meet|the foe; Des- pite|his boast, we’ll ~|
w: ||||
 [EG]>^F [EG]>A [GB]2 [EG]2 | [EF]2 [EG]2 [EF=A]2 [EFd]2 | [DFB]6 z2 :|2 %16
w: en- camp a- gainst us, They|can- not pre- vail;||
w: ~ ~ ~ ~ ~ ~|~ ~ ~ ~|con-|
w: |||
 [EG]>^F [EG]B !fermata![EAe]4 || FG[FA][Ec] !>![DG]2 !>![B,DF]2 | (z2 [G,B,]2 [G,B,]2) z2 |] %19
w: |||
w: quer Sa- tan’s host; We|can ne- ver, ne- ver fail.||
w: |||
V:2
 e4 B3 G | (DE=EF) x4 | x8 | x8 | e4 B3 G | (D=E ^F=A) x4 | x8 | x8 |: x8 | x8 | B,2 (B,2 B,2) x2 | %11
 B,2 C4 x2 | x8 |1 x8 | x8 | x8 :|2 x8 || C2 x6 | E6 x2 |] %19
V:3
 E4 B,3 G, | [B,,A,]4 [E,G,]2 z [E,B,] | D,2 [A,B,D]2 B,,2 A,2 | G,2 B,2 [E,B,]2 z2 | E4 B,3 G, | %5
 ([D,^F,]2 [D,D]2) [G,D]2 [_G,B,]2 | [F,B,]2 [F,D]2 [_G,C]2 [F,=A,]2 | %7
 ([B,,B,]2 !>!A,2 !>!G,2 !>!F,2) |: [E,G,]2 [B,,G,]2 [E,G,]2 [B,,B,]2 | %9
 [E,B,]2 [B,,B,]2 [E,B,]2 [B,,B,]2 | [D,A,]2 [B,,A,]2 [D,A,]2 [B,,A,]2 | %11
 [E,G,]2 [B,,G,]2 [D,A,]2 [B,,A,]2 | [E,G,]2 [B,,G,]2 [E,G,]2 [B,,B,]2 |1 %13
 [E,B,]2 [B,,B,]2 [E,B,]2 [E,B,]2 | [F,=A,]2 [F,B,]2 [F,C]2 [F,A,]2 | %15
 [B,,B,]2 !>!A,2 !>!G,2 !>!F,2 :|2 [E,B,]2 [_D,B,]2 !fermata![C,A,]4 || %17
 A,2 F,2 !>![B,,B,]2 !>![B,,A,]2 | ([E,G,]2 B,,2 E,,2) z2 |] %19

